X:1
T:God of the Living, 88.88.88
T:God of the Living, 88.88.88
T:Francis Everard William Hulton, 1889
T:Public Domain Courtesy of the Cyber Hymnal™
C:Francis Everard William Hulton, 1889
Z:Public Domain
Z:Courtesy of the Cyber Hymnal™
%%score ( 1 2 ) ( 3 4 )
L:1/8
Q:1/4=115
M:3/4
K:F
V:1 treble 
V:2 treble 
V:3 bass 
V:4 bass 
V:1
 [FA]2 [FA]2 [FA]2 | [Gc]4 [FA]2 | (G2 z [FA]2) x | ([EG]2 F4) | [EG]2 [EG]2 [EG]2 | [FA]4 [CF]2 | %6
 ([B,D]2 C2) [A,F]2 | [CG]6 | [CA]2 [CA]2 [CA]2 | [Gc]4 [FA]2 | (G2 B2) [DA]2 | ([^CG]2 [DF]4) | %12
 [CE]2 [CE]2 [CE]2 | [DG]4 [CE]2 | (D2 z [CE]2) x | ([=B,D]2 C4) | [EG]2 [EG]2 [EG]2 | %17
 [DB]4 [DG]2 | ([^CA]2 [DF]2) [DG]2 |[M:4/4] [^CA]4 [CE]4 | [DF]4 [Fd]4 | [Fc]4 [FA]4 | %22
 (G2 A4) [DF]2 | ([EG]4 F4) |] %24
V:2
 x6 | x6 | D3 (B2 E) | x2 F4 | x6 | x6 | x2 C2 x2 | x6 | x6 | x6 | D4 x2 | x6 | x6 | x6 | %14
 A,3 (F2 =B,) | x2 C4 | x6 | x6 | x6 |[M:4/4] x8 | x8 | x8 | D6 x2 | x4 F4 |] %24
V:3
 [F,C]2 [F,C]2 [F,C]2 | [E,C]4 [F,C]2 | ([B,,D]2 [G,,B,]2) C2 | ([C,B,]2 [F,A,]4) | %4
 [C,C]2 [C,C]2 [C,C]2 | [F,C]4 [A,,F,]2 | F,4 [D,F,]2 | [C,E,]6 | F,2 F,2 F,2 | [E,G,]4 [F,C]2 | %10
 B,4 [F,D]2 | A,6 | [A,,A,]2 [A,,A,]2 [A,,A,]2 | [=B,,G,]4 [C,G,]2 | ([F,,A,]2 [D,,F,]2) G,2 | %15
 ([G,,F,]2 [C,E,]4) | [C,C]2 [C,C]2 [C,C]2 | [G,,B,]4 [B,,D,]2 | ([A,,E,]2 [D,F,]2) [B,,D,]2 | %19
[M:4/4] [A,,E,]4 [A,,A,]4 | [D,A,]4 [B,,B,]4 | [A,,C]4 [F,,C]4 | C6 [D,A,]2 | ([C,B,]4 [F,,A,]4) |] %24
V:4
 x6 | x6 | x4 (A,,B,,) | x6 | x6 | x6 | (B,,2 A,,2) x2 | x6 | F,2 F,2 F,2 | x6 | (B,2 G,2) x2 | %11
 (E,2 D,4) | x6 | x6 | x4 (E,,F,,) | x6 | x6 | x6 | x6 |[M:4/4] x8 | x8 | x8 | (C,2 A,,4) x2 | %23
 x8 |] %24

